cdn/fa/svgs/sharp-solid/arrow-up-from-bracket.svg

<svg xmlns="http://www.w3.org/2000/svg" viewBox="0 0 448 512"><!--! Font Awesome Pro 6.5.2 by @fontawesome - https://fontawesome.com License - https://fontawesome.com/license (Commercial License) Copyright 2024 Fonticons, Inc. --><path d="M246.6 25.4L224 2.7 201.4 25.4l-128 128L50.7 176 96 221.3l22.6-22.6L192 125.3 192 320l0 32 64 0 0-32 0-194.7 73.4 73.4L352 221.3 397.3 176l-22.6-22.6-128-128zM64 352l0-32L0 320l0 32L0 480l0 32 32 0 384 0 32 0 0-32 0-128 0-32-64 0 0 32 0 96L64 448l0-96z"/></svg>

<svg xmlns="http://www.w3.org/2000/svg" viewBox="0 0 448 512"><!--! Font Awesome Pro 6.5.1 by @fontawesome - https://fontawesome.com License - https://fontawesome.com/license (Commercial License) Copyright 2023 Fonticons, Inc. --><path d="M246.6 25.4L224 2.7 201.4 25.4l-128 128L50.7 176 96 221.3l22.6-22.6L192 125.3V320v32h64V320 125.3l73.4 73.4L352 221.3 397.3 176l-22.6-22.6-128-128zM64 352V320H0v32V480v32H32 416h32V480 352 320H384v32 96H64V352z"/></svg>
